img/icon-time.svg

<svg width="26" height="31" viewBox="0 0 26 31" fill="none" xmlns="http://www.w3.org/2000/svg">
<path d="M5.53799 0C4.47504 0 4.47504 1.5831 5.53799 1.5831H12.1815V3.18731C5.37855 3.62002 0 9.41417 0 16.4854C0 20.4959 1.74325 24.1159 4.4963 26.5539C4.97463 26.976 5.03841 27.7254 4.60259 28.1897L3.07194 29.7412C2.32787 30.4272 3.43334 31.4931 4.10301 30.7438L6.10136 28.7069C6.45214 28.3692 6.97298 28.2847 7.4088 28.4958C9.12736 29.3397 11.0169 29.784 12.9341 29.795C14.8513 29.8059 16.7459 29.3833 18.4742 28.5591C18.8993 28.348 19.4308 28.4325 19.771 28.7702L21.7055 30.7438C22.3858 31.377 23.3638 30.4272 22.7472 29.7412L21.3016 28.2636C20.8552 27.8098 20.919 27.0605 21.4079 26.6277C22.8584 25.3585 24.0186 23.7959 24.8106 22.0447C25.6026 20.2936 26.0081 18.3944 25.9999 16.4748C25.9999 9.40362 20.5894 3.59891 13.7759 3.18731V1.5831H20.4194C21.4823 1.5831 21.4823 0 20.4194 0H5.53799ZM1.43499 16.4748C1.43499 9.94187 6.61158 4.65431 12.9999 4.65431C19.3777 4.65431 24.5543 9.94187 24.5543 16.4748C24.5543 23.0183 19.3777 28.3164 12.9999 28.3164C6.62221 28.3164 1.43499 23.0183 1.43499 16.4748ZM12.1921 8.37988C12.1921 7.28226 13.8503 7.28226 13.8503 8.37988V17.0131C13.8503 17.237 13.7607 17.4517 13.6012 17.6101C13.4418 17.7684 13.2255 17.8574 12.9999 17.8574C12.7875 17.8574 12.5836 17.7743 12.4324 17.6262C12.2812 17.478 12.1949 17.2767 12.1921 17.0658V8.37988ZM7.21746 10.9973C7.52475 10.9973 7.81945 10.8761 8.03673 10.6603C8.25402 10.4446 8.37608 10.152 8.37608 9.84688C8.37608 9.54178 8.25402 9.24918 8.03673 9.03344C7.81945 8.8177 7.52475 8.6965 7.21746 8.6965C6.93069 8.72386 6.66447 8.85633 6.47075 9.06805C6.27702 9.27977 6.16969 9.55556 6.16969 9.84161C6.16969 10.1277 6.27702 10.4034 6.47075 10.6152C6.66447 10.8269 6.93069 10.9593 7.21746 10.9867V10.9973ZM18.7718 10.9973C19.0791 10.9973 19.3738 10.8761 19.5911 10.6603C19.8083 10.4446 19.9304 10.152 19.9304 9.84688C19.9304 9.54178 19.8083 9.24918 19.5911 9.03344C19.3738 8.8177 19.0791 8.6965 18.7718 8.6965C18.485 8.72386 18.2188 8.85633 18.0251 9.06805C17.8313 9.27977 17.724 9.55556 17.724 9.84161C17.724 10.1277 17.8313 10.4034 18.0251 10.6152C18.2188 10.8269 18.485 10.9593 18.7718 10.9867V10.9973ZM8.37608 23.5882C8.37608 25.1185 6.05884 25.1185 6.05884 23.5882C6.05884 22.0579 8.37608 22.0579 8.37608 23.5882ZM12.9999 27.0288C13.1607 27.0441 13.3229 27.0259 13.4762 26.9754C13.6294 26.9248 13.7703 26.843 13.8899 26.7352C14.0094 26.6273 14.1049 26.4959 14.1703 26.3493C14.2356 26.2026 14.2694 26.044 14.2694 25.8837C14.2694 25.7233 14.2356 25.5648 14.1703 25.4181C14.1049 25.2715 14.0094 25.14 13.8899 25.0322C13.7703 24.9244 13.6294 24.8426 13.4762 24.792C13.3229 24.7414 13.1607 24.7232 12.9999 24.7386C12.7132 24.7659 12.4469 24.8984 12.2532 25.1101C12.0595 25.3219 11.9522 25.5976 11.9522 25.8837C11.9522 26.1697 12.0595 26.4455 12.2532 26.6572C12.4469 26.869 12.7132 27.0014 12.9999 27.0288ZM4.91085 16.6437C4.9263 16.8033 4.90797 16.9643 4.85704 17.1165C4.80611 17.2687 4.72371 17.4086 4.61511 17.5273C4.50651 17.646 4.37413 17.7408 4.22644 17.8057C4.07876 17.8706 3.91904 17.9041 3.75755 17.9041C3.59605 17.9041 3.43633 17.8706 3.28865 17.8057C3.14097 17.7408 3.00858 17.646 2.89998 17.5273C2.79138 17.4086 2.70898 17.2687 2.65805 17.1165C2.60712 16.9643 2.58879 16.8033 2.60424 16.6437C2.6318 16.3589 2.76522 16.0946 2.97845 15.9023C3.19169 15.7099 3.46945 15.6033 3.75755 15.6033C4.04564 15.6033 4.3234 15.7099 4.53664 15.9023C4.74987 16.0946 4.88329 16.3589 4.91085 16.6437ZM22.237 17.794C22.3978 17.8094 22.56 17.7912 22.7132 17.7406C22.8665 17.6901 23.0074 17.6082 23.127 17.5004C23.2465 17.3926 23.342 17.2611 23.4074 17.1145C23.4727 16.9679 23.5065 16.8093 23.5065 16.6489C23.5065 16.4886 23.4727 16.33 23.4074 16.1834C23.342 16.0367 23.2465 15.9053 23.127 15.7975C23.0074 15.6896 22.8665 15.6078 22.7132 15.5573C22.56 15.5067 22.3978 15.4885 22.237 15.5038C21.9502 15.5312 21.684 15.6637 21.4903 15.8754C21.2966 16.0871 21.1892 16.3629 21.1892 16.6489C21.1892 16.935 21.2966 17.2108 21.4903 17.4225C21.684 17.6342 21.9502 17.7667 22.237 17.794ZM19.9304 23.5987C19.9304 25.1185 17.6132 25.1185 17.6132 23.5882C17.6132 22.0579 19.9304 22.0579 19.9304 23.5882V23.5987Z" fill="white"/>
</svg>

<svg width="26" height="31" fill="none" xmlns="http://www.w3.org/2000/svg"><path d="M5.538 0c-1.063 0-1.063 1.583 0 1.583h6.643v1.604C5.38 3.62 0 9.414 0 16.485c0 4.01 1.743 7.63 4.496 10.069.479.422.542 1.171.107 1.636L3.072 29.74c-.744.686.361 1.752 1.031 1.003l1.998-2.037c.351-.338.872-.422 1.308-.211a12.702 12.702 0 0 0 11.065.063 1.14 1.14 0 0 1 1.297.211l1.934 1.974c.68.633 1.659-.317 1.042-1.003l-1.445-1.477c-.447-.454-.383-1.203.106-1.636a13.462 13.462 0 0 0 3.403-4.583A13.376 13.376 0 0 0 26 16.475c0-7.071-5.41-12.876-12.224-13.288V1.583h6.643c1.063 0 1.063-1.583 0-1.583H5.538ZM1.435 16.475c0-6.533 5.177-11.82 11.565-11.82 6.378 0 11.554 5.287 11.554 11.82 0 6.543-5.176 11.841-11.554 11.841S1.435 23.018 1.435 16.475ZM12.192 8.38c0-1.098 1.658-1.098 1.658 0v8.633c0 .224-.09.439-.249.597a.853.853 0 0 1-.601.247.811.811 0 0 1-.568-.23.8.8 0 0 1-.24-.561V8.38Zm-4.975 2.617c.308 0 .602-.12.82-.337a1.146 1.146 0 0 0 0-1.627 1.163 1.163 0 0 0-.82-.336c-.286.027-.553.16-.746.371a1.146 1.146 0 0 0 0 1.547c.193.212.46.344.746.372v.01Zm11.555 0c.307 0 .602-.12.82-.337a1.146 1.146 0 0 0 0-1.627 1.163 1.163 0 0 0-.82-.336c-.287.027-.553.16-.747.371a1.145 1.145 0 0 0 0 1.547c.194.212.46.344.747.372v.01ZM8.376 23.588c0 1.53-2.317 1.53-2.317 0s2.317-1.53 2.317 0ZM13 27.028a1.169 1.169 0 0 0 .89-.293 1.153 1.153 0 0 0 .38-.851 1.145 1.145 0 0 0-.38-.852 1.162 1.162 0 0 0-1.637.078 1.146 1.146 0 0 0 0 1.547c.194.212.46.344.747.372ZM4.91 16.645a1.143 1.143 0 0 1-.295.883 1.158 1.158 0 0 1-.857.377 1.166 1.166 0 0 1-.858-.377 1.148 1.148 0 0 1-.296-.883c.028-.285.161-.55.374-.742a1.163 1.163 0 0 1 1.559 0c.213.193.346.457.374.742Zm17.327 1.15a1.165 1.165 0 0 0 1.17-.68 1.144 1.144 0 0 0-.694-1.557 1.166 1.166 0 0 0-1.223.318 1.146 1.146 0 0 0 0 1.547c.194.212.46.345.747.372Zm-2.307 5.805c0 1.52-2.317 1.52-2.317-.01 0-1.531 2.317-1.531 2.317 0v.01Z" fill="#fff"/></svg>
